X: 6005
T: Canongate Twitch, The
R: reel
M: 4/4
K: Amajor
|:Ac ~c2 dcBc|Acea f2 ec|Ac ~c2 dcBc|fB ~B2 fBaB|
Ac ~c2 dcBc|Acea f2 ec|ABcA ~B2 AB|c2 Bd cA A2:|
|:afda fdaf|e2 ef ecBc|A2 AB ABce|fB ~B2 fBdf|
afda fdaf|e2 ef ecBc|ABcA B2 AB|ceBd cA A2:|

